X: 39699
T: Terry 'Cuz' Teahan's
R: polka
M: 2/4
K: Gmajor
|:Bd Bd|g2 g2|B/c/d Bd|BA AG|
B/c/d B/c/d|g2 g>a|ge dB|AG G2:|
|:ba ag|eg d2|ba ag|ba a2|
g>a bg|eg d2|BA/B/ dB|AB/A/ G2:|

